src/topics/icons/bitrise.svg

<svg height="254" preserveAspectRatio="xMidYMid" viewBox="0 0 256 254" width="256" xmlns="http://www.w3.org/2000/svg"><path d="m32.869 74.486h191.135v171.414h-191.135z" fill="#fff"/><g fill="#1b1a19"><path d="m99.014 147.625h-10.902c0-3.922-3.193-7.11-7.119-7.11-3.927 0-7.12 3.188-7.12 7.11h-10.902c0-9.936 8.086-18.016 18.022-18.016 9.935 0 18.021 8.08 18.021 18.016"/><path d="m201.781 147.625h-10.902c0-3.922-3.192-7.11-7.115-7.11-3.926 0-7.114 3.188-7.114 7.11h-10.907c0-9.936 8.086-18.016 18.021-18.016 9.936 0 18.017 8.08 18.017 18.016"/><path d="m231.588 110.267v-43.364h-95.56v-23.209h14.017v-43.206h-43.206v43.206h14.017v23.209h-95.57v43.162c-14.431 3.093-25.286 15.939-25.286 31.281 0 15.333 10.855 28.182 25.286 31.276v80.862h206.302v-81.064c13.991-3.415 24.412-16.051 24.412-31.074 0-15.031-10.421-27.665-24.412-31.079zm-109.582-94.612h12.868v12.868h-12.868zm-106.834 125.691c0-6.894 4.166-12.827 10.114-15.424v30.843c-5.948-2.596-10.114-8.529-10.114-15.419zm25.286 63.135h175.964v33.836h-175.964zm0-122.406h175.964v107.235h-175.964zm191.13 74.277v-30.017c5.477 2.777 9.24 8.46 9.24 15.011 0 6.548-3.763 12.229-9.24 15.006z"/></g></svg>

<?xml version="1.0" encoding="UTF-8" standalone="no"?>
<svg width="256px" height="254px" viewBox="0 0 256 254" version="1.1" xmlns="http://www.w3.org/2000/svg" xmlns:xlink="http://www.w3.org/1999/xlink" preserveAspectRatio="xMidYMid">
	<g>
		<path d="M32.869,74.486 L224.004,74.486 L224.004,245.9 L32.869,245.9 L32.869,74.486 Z" fill="#FFFFFF"></path>
		<path d="M99.014,147.625 L88.112,147.625 C88.112,143.703 84.919,140.515 80.993,140.515 C77.066,140.515 73.873,143.703 73.873,147.625 L62.971,147.625 C62.971,137.689 71.057,129.609 80.993,129.609 C90.928,129.609 99.014,137.689 99.014,147.625" fill="#1B1A19"></path>
		<path d="M201.781,147.625 L190.879,147.625 C190.879,143.703 187.687,140.515 183.764,140.515 C179.838,140.515 176.65,143.703 176.65,147.625 L165.743,147.625 C165.743,137.689 173.829,129.609 183.764,129.609 C193.7,129.609 201.781,137.689 201.781,147.625" fill="#1B1A19"></path>
		<path d="M231.588,110.267 L231.588,66.903 L136.028,66.903 L136.028,43.694 L150.045,43.694 L150.045,0.488 L106.839,0.488 L106.839,43.694 L120.856,43.694 L120.856,66.903 L25.286,66.903 L25.286,110.065 C10.855,113.158 0,126.004 0,141.346 C0,156.679 10.855,169.528 25.286,172.622 L25.286,253.484 L231.588,253.484 L231.588,172.42 C245.579,169.005 256,156.369 256,141.346 C256,126.315 245.579,113.681 231.588,110.267 L231.588,110.267 Z M122.006,15.655 L134.874,15.655 L134.874,28.523 L122.006,28.523 L122.006,15.655 Z M15.172,141.346 C15.172,134.452 19.338,128.519 25.286,125.922 L25.286,156.765 C19.338,154.169 15.172,148.236 15.172,141.346 L15.172,141.346 Z M40.458,204.481 L216.422,204.481 L216.422,238.317 L40.458,238.317 L40.458,204.481 Z M40.458,82.075 L216.422,82.075 L216.422,189.31 L40.458,189.31 L40.458,82.075 Z M231.588,156.352 L231.588,126.335 C237.065,129.112 240.828,134.795 240.828,141.346 C240.828,147.894 237.065,153.575 231.588,156.352 L231.588,156.352 Z" fill="#1B1A19"></path>
	</g>
</svg>
